X:9
T:Boil them Cabbage Down
R: Reel
C: Traditional
M: 4/4
L: 1/8
K: Amaj
Q:120
|: "A"cc cc "D"d2 dd/2d/2 | "A"cc cA "E7" B4 |  
w: Went up on the moun-tain just to give my horn a blow. 
w: Pos-sum up a 'sim-mon tree,* Ra-coon on the ground. 
w: Rac-coon has a bu-shy tail, Pos-sum's tail is* bare. 
w: Some-one stole my ol' 'coon dog. Wish they'd bring him* back. 
| "A"cc cc "D" dd d2 | "E7"cc BB "A" A4  | 
w: Thought I heard my true love say, "Yon-der comes my beau."
w: Ra-coon say to pos-sum, "Won't you shake them 'sim-mons down?"
w: Rab-bit's got no tail at all, just a little bunch of~hair.
w: He chased~the big~hogs through the fence and the little ones through the crack.
|"A"cc cc "D"d4| "A" cc  cc "E7"B3 c| 
w: Boil them cab-bage down, bake them hoe-cakes brown. The
"A"cccc "D"dddd| "E7"ccBB  "A" A4 :|
w:  on-ly song that I can sing is Boil them Cab-bage Down.

